X: 109
T: the Cuckoos Nest
N: This tune has "1771" at the top-right corner.
B: 204 Favourite Country Dances
N: Published by Straight & Skillern, London ca.1775
F: http://imslp.org/wiki/204_Favourite_Country_Dances_(Various) p.55 109
Z: 2014 John Chambers <jc:trillian.mit.edu>
N: Strain 2 bar 3 the B should probably be natural.
M: C
L: 1/8
K: Dm
% - - - - - - - - - - - - - - - - - - - - - - - - -
AG |\
FEFD f2ed | cAFA B2AG |\
FEFD CcBc | c2 G4 AG |\
FEFD fefd | cAFA BABG |
FEFD CDEF | F2 D4 :|\
|: A2 |\
d^cde fefd | c2 A4 A=B |\
cBcd edec | c2 G4 AG |
FEFD fefd | cAFA BABG |\
FEFD CDEF | F2 D4 :|\
|: FG |\
AFDF AFDF | (3AGF (3FED D2EF |
GECE GECE | (3(GFE) (3FED C2AG |\
FEFD fefd | cAFA BABG |\
A/G/F/E/ G/F/E/D/ CD EF/G/ | F2 D4 :|
% - - - - - - - - - - - - - - - - - - - - - - - - -
%%begintext align
%% The 1st Cu. cast off 1 Cu. and Right Hands across with the 3d Cu.
%% .| cast up and Left Hands across with the 2d Cu. .|. the 1st foot it to
%% the 2d Wo. and Hands round 3 .| the same to the 2d Man :| cross over
%% 2 Cu. .||. lead up to the top foot it and cast off :||:
%%endtext

%%sep 1 1 500
%%sep 1 1 500
